devices/16/keyboard-caps-locked.svg

<svg version="1.1" viewBox="0 0 16 16" xmlns="http://www.w3.org/2000/svg">
    <defs>
        <style id="current-color-scheme" type="text/css">.ColorScheme-Text {
                color:#eff0f1;
            }</style>
    </defs>
    <g fill="currentColor" shape-rendering="auto">
        <path class="ColorScheme-Text" d="m8 2-5 5h3v5h4v-5h3z"/>
        <path class="ColorScheme-Text" d="m6 13v1h4v-1h-4z"/>
    </g>
</svg>

<svg xmlns="http://www.w3.org/2000/svg" viewBox="0 0 16 16">
  <defs id="defs3051">
    <style type="text/css" id="current-color-scheme">
      .ColorScheme-Text {
        color:#232629;
      }
      </style>
  </defs>
 <path style="fill:currentColor;fill-opacity:1;stroke:none" 
     d="M 8 2 L 3 7 L 6 7 L 6 12 L 10 12 L 10 7 L 13 7 L 8 2 z M 6 13 L 6 14 L 10 14 L 10 13 L 6 13 z "
     class="ColorScheme-Text"
     />
</svg>
